images/icon (8).svg

<svg width="41" height="40" viewBox="0 0 41 40" fill="none" xmlns="http://www.w3.org/2000/svg">
<g clip-path="url(#clip0_2230_44)">
<rect x="0.5" y="16.6667" width="23.3333" height="23.3333" fill="#7595FD"/>
<path d="M11.1 31.3L11.5167 35L14.2167 32.4333L18.8333 19.7667C17.7 19.4833 16.7 18.9167 15.8833 18.1333L11.1 31.3ZM25.1167 18.1333C24.3 18.9167 23.2833 19.4833 22.1667 19.7667L26.7833 32.4333L29.4833 35L29.9167 31.3L25.1167 18.1333ZM25.4 14.3333C25.9 11.7333 24.4 9.43333 22.1667 8.63333V6.66667C22.1667 5.75 21.4167 5 20.5 5C19.5833 5 18.8333 5.75 18.8333 6.66667V8.63333C16.9 9.33333 15.5 11.1667 15.5 13.3333C15.5 16.4 18.2667 18.8333 21.4333 18.25C23.4 17.8833 25.0167 16.3 25.4 14.3333ZM20.5 15C19.5833 15 18.8333 14.25 18.8333 13.3333C18.8333 12.4167 19.5833 11.6667 20.5 11.6667C21.4167 11.6667 22.1667 12.4167 22.1667 13.3333C22.1667 14.25 21.4167 15 20.5 15Z" fill="#292E3D"/>
</g>
<defs>
<clipPath id="clip0_2230_44">
<rect width="40" height="40" fill="white" transform="translate(0.5)"/>
</clipPath>
</defs>
</svg>

<svg width="41" height="40" fill="none" xmlns="http://www.w3.org/2000/svg"><g clip-path="url(#clip0_2230_44)"><path fill="#7595FD" d="M.5 16.667h23.333V40H.5z"/><path d="M11.1 31.3l.417 3.7 2.7-2.567 4.616-12.666a6.526 6.526 0 01-2.95-1.634L11.1 31.3zm14.017-13.167a6.614 6.614 0 01-2.95 1.634l4.616 12.666 2.7 2.567.434-3.7-4.8-13.167zm.283-3.8c.5-2.6-1-4.9-3.233-5.7V6.667C22.167 5.75 21.417 5 20.5 5s-1.667.75-1.667 1.667v1.966c-1.933.7-3.333 2.534-3.333 4.7 0 3.067 2.767 5.5 5.933 4.917 1.967-.367 3.584-1.95 3.967-3.917zM20.5 15c-.917 0-1.667-.75-1.667-1.667 0-.916.75-1.666 1.667-1.666s1.667.75 1.667 1.666c0 .917-.75 1.667-1.667 1.667z" fill="#292E3D"/></g><defs><clipPath id="clip0_2230_44"><path fill="#fff" transform="translate(.5)" d="M0 0h40v40H0z"/></clipPath></defs></svg>
